X:521
T:
N:
S:Efter »Florsen» i Burs.
R:vals
O:Gotland, Burs
M:3/4
L:1/8
K:G
Bc|Ld2 (ed)(Bd)|g2 db g2|La2 fdef|(gf)(gb)(Bc)|Ld2 (ed)(Bd)|
g2 db g2|La2 fdef|g4 :|
K:C
|:gf|e4 ce|e2 (cB)(ce)|d2 (BG)(Bd)|(cB)(ce)(ag)|e4 cd|e2 cB ce|
d2 BG Bd|c4::g2|e'2 c'c'c'c'|c'2 b2 c'2|a2 ffff|f2 e2 f2|e2 dcBc|
d2 cBAc|1 B2 GGGG|G4:|2 [GB]2 cccc|c4||

